X: 163
T: Peace and Plenty
R: reel
M: C|
L: 1/8
Z: 2011 John Chambers <jc:trillian.mit.edu>
B: Abraham Mackintosh "A Collection of Strathspeys, Reels, Jigs &c.", Newcastle, after 1797, p.16
F: http://imslp.info/files/imglnks/usimg/a/a8/IMSLP80796-PMLP164326-Abraham_Mackintosh_coll.pdf
K: D
V: 1
f | dABG {G}F2ED | Ee2f gfef | dABG {G}F2EA | D2FE FDD :|
f/g/ | afdf a>baf | aa {b}ag/f/ ge ef/g/ | afdf a>baf | g/f/g/b/ a/g/f/e/ fd df/g/ |
y2     aa {b}ag/f/ gg {a}gf/e/ | ff {g}fe/d/ fe-ef | dABG {G}F2EA | d2fe fdd |]
V: 2 clef=bass middle=d
z | d2g2 d2ef | g2e2 a2A2 | f2g2 d'2c'2 | bga2 d2D :|
z | d2d2 d2d2 | f2d2 a2A2 | d2d2 d2f2 | e2a2 d2d2 |
y2  f2d2 e2c2 | d2B^G A2a2 | f2g2 d'2c'2 | bga2 d2D |]

%%sep 2 1 500

